X:1
T:The Express Office
M:6/8
L:1/8
K:Eb
 G,| G2 B G2 F| E G2 z2 C/2C/2| E2 F E2 C| B,3- B,2 B,| C2 F z EC|\
 B,2 C E2 G|G-F D B,2 F| E3 z2 B,| G2 B G2 F| E G2 z2 C/2C/2| E2 F E2 C|\
 B,3 z2 B,| C2 F E2 C| B,2- E E2 G| G F2 D2 B,| E3- E2||
